src/static/logos/drift.svg

<?xml version="1.0" encoding="UTF-8"?>
<svg width="256px" height="256px" viewBox="0 0 256 256" version="1.1" xmlns="http://www.w3.org/2000/svg" xmlns:xlink="http://www.w3.org/1999/xlink" preserveAspectRatio="xMidYMid">
	<g>
		<path d="M128,0 C57.3017669,0 0,57.3145804 0,128.006406 C0,198.691827 57.3017669,256 128,256 C198.691827,256 256,198.698233 256,128.006406 C255.993593,57.3209871 198.691827,0 128,0 L128,0 L128,0 Z" fill="#3B8AF0"></path>
		<path d="M209.545966,93.8205785 C208.286396,93.0916903 206.815831,92.9062715 205.447568,93.2643218 C205.019186,93.3921969 204.590804,93.5584345 204.194391,93.7886098 L134.758201,134.248299 C133.076642,135.226543 132.040854,137.04237 132.040854,138.992465 L132.040854,160.322036 C132.040854,161.30028 132.302998,162.240163 132.763348,163.052169 C133.230093,163.864177 133.901437,164.554702 134.739019,165.047022 C136.40779,166.006085 138.447397,166.012479 140.116168,165.066202 C140.128956,165.059809 140.148136,165.053416 140.160924,165.040628 L162.986634,151.735221 L162.986634,151.779977 L163.031389,151.754403 L163.031389,201.203712 C163.031389,202.175563 163.28714,203.115445 163.753884,203.933846 C164.220628,204.720278 164.879185,205.398016 165.703979,205.896729 C166.541562,206.363473 167.47505,206.619223 168.414932,206.619223 C169.354815,206.619223 170.288303,206.363473 171.132279,205.896729 L184.776554,197.942897 C186.458112,196.958258 187.487507,195.148825 187.487507,193.192336 L187.487507,137.45157 L209.539572,124.612908 C211.227523,123.62827 212.250524,121.812442 212.250524,119.855953 L212.250524,98.5583515 C212.250524,96.6018625 211.227523,94.7988233 209.545966,93.8205785 L209.545966,93.8205785 Z M132.040854,76.116268 C132.040854,78.0727573 133.076642,79.8821903 134.758201,80.8668287 L155.755295,93.0980841 C155.844808,93.155628 155.921533,93.232353 156.004651,93.2898968 L156.612058,93.6415533 C156.727146,93.7118847 156.791083,93.8333661 156.791083,93.967635 L156.791083,94.6837356 C156.803871,94.779642 156.829446,94.8691545 156.829446,94.9650609 L156.829446,109.773 C156.829446,111.224383 158.191316,112.209021 159.502036,111.88294 C159.674667,111.83179 159.853693,111.767852 160.01993,111.671945 C168.523626,106.723179 191.381305,93.4241657 199.801881,88.539336 C201.234082,87.7145415 201.202114,85.681327 199.782699,84.843745 L140.167318,50.1192556 C138.492154,49.1346172 136.420577,49.1346172 134.739019,50.1192556 C133.492237,50.8481438 132.597111,52.0437762 132.219879,53.41204 C132.104791,53.859603 132.040854,54.3263471 132.040854,54.7994851 L132.040854,76.116268 L132.040854,76.116268 L132.040854,76.116268 Z M122.450219,50.1256493 C120.762268,49.141011 118.697085,49.141011 117.015527,50.1256493 L57.3745703,84.8757138 C55.9679439,85.6941145 55.9423689,87.6889665 57.3298139,88.513761 C65.7759658,93.417772 88.7615189,106.774328 97.2140649,111.697521 C98.6270846,112.515921 100.385367,111.486527 100.385367,109.849725 L100.385367,94.9522733 C100.385367,94.9266983 100.391761,94.9139108 100.391761,94.8883358 L100.391761,93.756641 L101.267706,93.2515343 C101.331644,93.206778 101.3764,93.1492342 101.440337,93.1172653 L121.388857,81.4998105 C123.134352,80.4768096 124.387528,78.8208268 124.905422,76.9090937 C125.071659,76.2761118 125.161172,75.617555 125.161172,74.9462105 L125.161172,54.8634226 C125.161172,52.9069333 124.125384,51.0975003 122.450219,50.1256493 L122.450219,50.1256493 Z M121.280162,134.248299 L79.2220348,109.741032 L51.8951213,93.8269723 C50.2135634,92.8423338 48.1483802,92.8423338 46.4668223,93.8269723 C44.7852645,94.7988233 43.749476,96.6082562 43.749476,98.5583515 L43.749476,119.855953 C43.749476,121.818836 44.7852645,123.62827 46.4668223,124.612908 L68.5188871,137.45157 L68.5188871,193.192336 C68.5188871,195.155219 69.5546756,196.964652 71.2298397,197.942897 L84.880509,205.896729 C85.7180911,206.363473 86.6579731,206.619223 87.5914616,206.619223 C88.5313437,206.619223 89.4648321,206.363473 90.3088079,205.896729 C91.5555903,205.161448 92.4379287,203.972209 92.8215541,202.610339 C92.9366416,202.162775 93.0005793,201.683244 93.0005793,201.203712 L93.0005793,151.748009 L93.0197605,151.760797 L93.0197605,151.735221 L115.845469,165.040628 C115.864651,165.053416 115.877439,165.059809 115.896619,165.066202 C117.56539,166.012479 119.604998,166.006085 121.273768,165.047022 C122.948933,164.068777 123.991115,162.246557 123.991115,160.29646 L123.991115,138.986071 C123.991115,137.04237 122.948933,135.226543 121.280162,134.248299 L121.280162,134.248299 Z" fill="#FFFFFF"></path>
	</g>
</svg>

<svg width="256" height="256" xmlns="http://www.w3.org/2000/svg" preserveAspectRatio="xMidYMid"><path d="M128 0C57.302 0 0 57.315 0 128.006 0 198.692 57.302 256 128 256c70.692 0 128-57.302 128-127.994C255.994 57.321 198.692 0 128 0z" fill="#3B8AF0"/><path d="M209.546 93.82a5.428 5.428 0 00-4.098-.556 5.784 5.784 0 00-1.254.525l-69.436 40.46a5.494 5.494 0 00-2.717 4.743v21.33c0 .978.262 1.918.722 2.73a5.47 5.47 0 001.976 1.995 5.416 5.416 0 005.377.02c.013-.007.032-.014.045-.026l22.826-13.306v.045l.044-.026v49.45c0 .972.256 1.911.723 2.73a5.671 5.671 0 001.95 1.963 5.586 5.586 0 002.71.722c.94 0 1.874-.256 2.718-.722l13.645-7.954a5.499 5.499 0 002.71-4.75v-55.741l22.053-12.84a5.496 5.496 0 002.71-4.756V98.558a5.464 5.464 0 00-2.704-4.737zm-77.505-17.704a5.505 5.505 0 002.717 4.75l20.997 12.232c.09.058.167.134.25.192l.607.352c.115.07.18.191.18.326v.716c.012.096.037.185.037.281v14.808a2.165 2.165 0 002.673 2.11c.173-.051.352-.115.518-.211 8.504-4.949 31.361-18.248 39.782-23.133 1.432-.824 1.4-2.858-.02-3.695l-59.615-34.725a5.357 5.357 0 00-5.428 0 5.512 5.512 0 00-2.52 3.293 5.578 5.578 0 00-.178 1.387v21.317zm-9.59-25.99a5.369 5.369 0 00-5.435 0l-59.641 34.75c-1.407.818-1.433 2.813-.045 3.638a53058.01 53058.01 0 0139.884 23.184c1.413.818 3.171-.211 3.171-1.848V94.952c0-.025.007-.038.007-.064v-1.131l.876-.505c.064-.045.108-.103.172-.135L121.39 81.5a7.642 7.642 0 003.516-4.59 7.724 7.724 0 00.256-1.964V54.863a5.476 5.476 0 00-2.71-4.737zm-1.17 84.122l-42.059-24.507-27.327-15.914a5.357 5.357 0 00-5.428 0 5.466 5.466 0 00-2.718 4.731v21.298a5.507 5.507 0 002.718 4.757l22.052 12.839v55.74a5.497 5.497 0 002.71 4.75l13.652 7.955a5.604 5.604 0 002.71.722c.94 0 1.874-.256 2.718-.722a5.55 5.55 0 002.513-3.287 5.69 5.69 0 00.179-1.406v-49.456l.019.013v-.026l22.825 13.306c.02.012.032.019.052.025a5.416 5.416 0 005.377-.019 5.518 5.518 0 002.717-4.75v-21.31a5.513 5.513 0 00-2.71-4.739z" fill="#FFF"/></svg>
